X:7
T:The Drummers Call
S:Ashworth's Instructor, p. 30
M:2/4
K:G
%%MIDI program 72
%%MIDI transpose 8
L:1/16
(d/e/f/g/)|afdf g3e|dBAG F3D|(EG)(FA) (GB)(Ac)|(Bd)(^ce) d2(d/e/f/g/)|
afdf g3e|dBAG F3D|GBAc BdgB|cedF G2|]

